X:735
T: The Queen Of Rangoon
Z: Piano Box Version by Martin Fleischmann
H: Created 2015-05-23 /  Last Modified 2015-05-25
R: reel
M: 4/4
L: 1/8
K: Bmin
A|:B2ef dB~B2 | eeeB dB~B2 | edBA FEED | EFAB edB2- |
BBef dz~B2 | e3B dB~B2 | edBA FEED | EFAF B3 :|
c|: dBGF G2 B/c/d | ecAF ~A3G | F2BF ABBd | cBBd cBBc |
dBGF G2 B/c/d | ecAF ~A3G | F2BF BBBd | cdec B3 :|

